!!!COM: Music21
!!!OTL: polka_Port-Muiris-O패-Da패laigh
!!!OMV: polka_Port-Muiris-O패-Da패laigh
**kern
*clefG2
*k[f#]
*G:
*M2/4
=1
32bLLL
32ccJJJ
=
16ddLL
32eeL
32ddJ
16cc
16aJJ
4ryy
=
16gLL
16b
16b
32aL
32gJJJ
4ryy
=
16f#LL
16a
16a
16f#JJ
4ryy
=
16gLL
16a
16b
16ccJJ
4ryy
=
16ddLL
32eeL
32dd
32cc
32bJ
16aJJ
4ryy
=
16gLL
16b
16b
32aL
32gJJJ
4ryy
!!linebreak:original
=
16f#LL
16a
16cc
16aJJ
4ryy
=
8gL
16gJk
4ryy
16ryy
=||
*M2/4
32bLLL
32ccJJJ
=
16ddLL
32eeL
32ddJ
16cc
16aJJ
4ryy
=
16gLL
16b
16b
32aL
32gJJJ
4ryy
=
16f#LL
16a
16a
16f#JJ
4ryy
=
16gLL
16a
16b
16ccJJ
4ryy
!!linebreak:original
=
16ddLL
32eeL
32dd
32cc
32bJ
16aJJ
4ryy
=
16gLL
16b
16b
32aL
32gJJJ
4ryy
=
16f#LL
16a
16cc
16aJJ
4ryy
=
8gL
16gJk
4ryy
16ryy
=||
32aLLL
32gJJJ
4..ryy
=
16f#LL
16g
16a
16bJJ
4ryy
=
16ccLL
32ddL
32ccJ
16b
16aJJ
4ryy
!!linebreak:original
=
16bLL
32ccL
32bJ
16b
32ccL
32bJJJ
4ryy
=
16aLL
16g
32ccL
32b
32a
32gJJJ
4ryy
=
16.f#LL
32gK
16a
16bJJ
4ryy
=
16ccLL
32ddL
32ccJ
16b
16aJJ
4ryy
=
16bLL
16dd
16cc
16aJJ
4ryy
=
8gL
16gJk
4ryy
16ryy
=||
32aLLL
32gJJJ
4..ryy
!!linebreak:original
=
16f#LL
16g
16a
16bJJ
4ryy
=
16ccLL
32ddL
32ccJ
16b
16aJJ
4ryy
=
16bLL
32ccL
32bJ
16b
32ccL
32bJJJ
4ryy
=
16aLL
16g
32ccL
32b
32a
32gJJJ
4ryy
=
16.f#LL
32gK
16a
16bJJ
4ryy
=
16ccLL
32ddL
32ccJ
16b
16aJJ
4ryy
=
16bLL
16dd
16cc
16aJJ
4ryy
!!linebreak:original
=
8gL
16gJk
4ryy
16ryy
=||
*-
